X:1107
M:3/4
L:1/8
Q:1/4=104 "Slow"
K:A Dorian
e2 de gd|e2 d2 B2|ge`deg2|edBd   e2 |G3  ABd|TB4      A2:|
g3 efg|a3 fga    |b3 aga|b3d' (3bag     |a3 gab|e'3 d'``ba |g3 a (3bag| g2 f2 ed |
d3 def|g3 a (3bag|e3 deg|e>ged  B/d/e/f/|gedeg2|edB deg    |G3 A   Bd |TB4    A2:|

